X:1
T:Title
%%score 1 { 2 | 3 }
L:1/8
Q:1/4=80
M:3/4
K:A
V:1 treble nm="Grand Piano, Soprano"
V:2 bass nm="Choir Pad, Can a Boy Forget His Mother?"
V:3 bass 
V:1
 [CE]/[CE]/[CE]- [CE]/[CE]/ [CE]3 | [CE][DF]- [DF]/[DF]/ [DF]3 | [DA][CE]- [CE]/[CE]/ [EA]3 | %3
w: By~Joseph~Hulse~Weber * * * * *|||
 [EA][EB]- [EB]/[EA]/ [EB]3 | [DE][DE]- [DE]/[CA]/ [EB]3 | [CA][DB]- [DB]/[DB]/ [DF]3 | %6
w: |||
 [DA][CE]- [CE]/[EA]/ [Ec]3 | [EA][EB]- [EB]/[EB]/ [EA]3 | [=GA][Fd]- [Fd]/[Fd]/ [Fd]3 | %9
w: |||
 [DF][CE]- [CE]/[EA]/ [Ec]3 | [EA][EB]- [EB]/[EB]/ [EB]3 | [DG][CA]- [CA]/[EB]/ [Ec]3 | %12
w: |||
 [Ec][Ec]- [Ec]/[Ec]/ [Ee]3 | [EA][DB]- [DB]/[DB]/ [DF]3 | [DA][CE]- [CE]/[CA]/ [Ec]3 | %15
w: |||
 [EA][Ec]/[DB]/- [DB] [CA]3- | [CA]4 z2 |] %17
w: ||
V:2
 A,/A,/A,- A,/A,/ A,3 | A,A,- A,/A,/ A,3 | F,A,- A,/A,/[K:treble] C3 | CD- D/C/ D3 | %4
 B,G,- G,/A,/ A,3 | A,F,- F,/F,/ A,3 | F,A,- A,/[K:treble]C/ A,3 | CD- D/D/ C3 | CD- D/D/ D3 | %9
 A,A,- A,/C/ A,3 | CD- D/D/ D3 | B,A,- A,/G,/ A,3 | A,A,- A,/A,/ A,3 | A,F,- F,/F,/ A,3 | %14
 F,A,- A,/A,/ A,3 | B,A,/G,/- G, A,3- | A,4 z2 |] %17
V:3
 A,,/A,,/A,,- A,,/A,,/ A,,3 | A,,D,- D,/D,/ D,3 | D,A,,- A,,/A,,/ A,,3 | A,,E,- E,/E,/ E,3 | %4
 E,E,- E,/A,,/ A,,3 | A,,D,- D,/D,/ D,3 | D,A,,- A,,/A,,/ A,,3 | A,,E,- E,/E,/ A,,3 | %8
 A,,D,- D,/D,/ D,3 | D,A,,- A,,/A,,/ A,,3 | A,,E,- E,/E,/ E,3 | E,E,- E,/E,/ A,,3 | %12
 A,,A,,- A,,/A,,/ C,3 | C,D,- D,/D,/ D,3 | D,A,,- A,,/A,,/ A,,3 | A,,E,/E,/- E, A,,3- | A,,4 z2 |] %17

